P3
100 56
255
204 226 255
204 226 255
204 226 255
204 226 255
204 226 255
203 226 255
203 226 255
203 225 255
203 225 255
202 225 255
202 225 255
202 225 255
202 225 255
201 225 255
201 224 255
201 224 255
201 224 255
200 224 255
200 224 255
200 224 255
199 224 255
199 223 255
199 223 255
199 223 255
198 223 255
198 223 255
198 223 255
197 222 255
197 222 255
197 222 255
197 222 255
196 222 255
196 222 255
196 222 255
196 222 255
195 221 255
195 221 255
195 221 255
195 221 255
195 221 255
194 221 255
194 221 255
194 221 255
194 221 255
194 221 255
194 221 255
194 221 255
194 220 255
194 220 255
194 220 255
194 220 255
194 220 255
194 220 255
194 221 255
194 221 255
194 221 255
194 221 255
194 221 255
194 221 255
194 221 255
195 221 255
195 221 255
195 221 255
195 221 255
195 221 255
196 222 255
196 222 255
196 222 255
196 222 255
197 222 255
197 222 255
197 222 255
197 223 255
198 223 255
198 223 255
198 223 255
199 223 255
199 223 255
199 223 255
199 224 255
200 224 255
200 224 255
200 224 255
201 224 255
201 224 255
201 224 255
201 225 255
202 225 255
202 225 255
202 225 255
202 225 255
203 225 255
203 225 255
203 226 255
203 226 255
204 226 255
204 226 255
204 226 255
204 226 255
204 226 255
205 227 255
205 226 255
205 226 255
204 226 255
204 226 255
204 226 255
204 226 255
203 226 255
203 226 255
203 225 255
203 225 255
202 225 255
202 225 255
202 225 255
202 225 255
201 225 255
201 224 255
201 224 255
201 224 255
200 224 255
200 224 255
200 224 255
199 224 255
199 223 255
199 223 255
199 223 255
198 223 255
198 223 255
198 223 255
198 223 255
197 222 255
197 222 255
197 222 255
196 222 255
196 222 255
196 222 255
196 222 255
196 221 255
195 221 255
195 221 255
195 221 255
195 221 255
195 221 255
195 221 255
194 221 255
194 221 255
194 221 255
194 221 255
194 221 255
194 221 255
194 221 255
194 221 255
194 221 255
194 221 255
194 221 255
194 221 255
195 221 255
195 221 255
195 221 255
195 221 255
195 221 255
195 221 255
196 221 255
196 222 255
196 222 255
196 222 255
196 222 255
197 222 255
197 222 255
197 222 255
197 223 255
198 223 255
198 223 255
198 223 255
199 223 255
199 223 255
199 223 255
199 224 255
200 224 255
200 224 255
200 224 255
201 224 255
201 224 255
201 224 255
201 225 255
202 225 255
202 225 255
202 225 255
202 225 255
203 225 255
203 225 255
203 226 255
203 226 255
204 226 255
204 226 255
204 226 255
204 226 255
205 226 255
205 226 255
205 227 255
206 227 255
205 227 255
205 227 255
205 226 255
205 226 255
204 226 255
204 226 255
204 226 255
204 226 255
204 226 255
203 226 255
203 225 255
203 225 255
202 225 255
202 225 255
202 225 255
202 225 255
201 225 255
201 224 255
201 224 255
201 224 255
200 224 255
200 224 255
200 224 255
200 224 255
199 223 255
199 223 255
199 223 255
198 223 255
198 223 255
198 223 255
198 223 255
197 222 255
197 222 255
197 222 255
197 222 255
196 222 255
196 222 255
196 222 255
196 222 255
196 222 255
195 221 255
195 221 255
195 221 255
195 221 255
195 221 255
195 221 255
195 221 255
195 221 255
195 221 255
195 221 255
195 221 255
195 221 255
195 221 255
195 221 255
195 221 255
195 221 255
195 221 255
195 221 255
196 221 255
196 222 255
196 222 255
196 222 255
196 222 255
197 222 255
197 222 255
197 222 255
197 222 255
198 223 255
198 223 255
198 223 255
198 223 255
199 223 255
199 223 255
199 223 255
199 224 255
200 224 255
200 224 255
200 224 255
201 224 255
201 224 255
201 224 255
201 225 255
202 225 255
202 225 255
202 225 255
203 225 255
203 225 255
203 225 255
203 226 255
203 226 255
204 226 255
204 226 255
204 226 255
204 226 255
205 226 255
205 226 255
205 227 255
205 227 255
206 227 255
206 227 255
206 227 255
206 227 255
205 227 255
205 227 255
205 227 255
205 226 255
205 226 255
204 226 255
204 226 255
204 226 255
204 226 255
203 226 255
203 226 255
203 225 255
203 225 255
202 225 255
202 225 255
202 225 255
202 225 255
201 225 255
201 224 255
201 224 255
200 224 255
200 224 255
200 224 255
200 224 255
199 223 255
199 223 255
199 223 255
198 223 255
198 223 255
198 223 255
198 223 255
197 223 255
197 222 255
197 222 255
197 222 255
197 222 255
196 222 255
196 222 255
196 222 255
196 222 255
196 222 255
196 222 255
196 222 255
195 221 255
195 221 255
195 221 255
195 221 255
195 221 255
195 221 255
195 221 255
196 221 255
196 221 255
196 222 255
196 222 255
196 222 255
196 222 255
196 222 255
196 222 255
197 222 255
197 222 255
197 222 255
197 222 255
198 223 255
198 223 255
198 223 255
198 223 255
199 223 255
199 223 255
199 223 255
199 223 255
200 224 255
200 224 255
200 224 255
200 224 255
201 224 255
201 224 255
201 225 255
202 225 255
202 225 255
202 225 255
202 225 255
203 225 255
203 225 255
203 226 255
203 226 255
204 226 255
204 226 255
204 226 255
204 226 255
205 226 255
205 226 255
205 227 255
205 227 255
205 227 255
206 227 255
206 227 255
206 227 255
207 227 255
206 227 255
206 227 255
206 227 255
206 227 255
206 227 255
205 227 255
205 227 255
205 226 255
205 226 255
204 226 255
204 226 255
204 226 255
204 226 255
203 226 255
203 226 255
203 225 255
203 225 255
202 225 255
202 225 255
202 225 255
202 225 255
201 225 255
201 224 255
201 224 255
201 224 255
200 224 255
200 224 255
200 224 255
199 224 255
199 223 255
199 223 255
199 223 255
198 223 255
198 223 255
198 223 255
198 223 255
197 223 255
197 222 255
197 222 255
197 222 255
197 222 255
197 222 255
196 222 255
196 222 255
196 222 255
196 222 255
196 222 255
196 222 255
196 222 255
196 222 255
196 222 255
196 222 255
196 222 255
196 222 255
196 222 255
196 222 255
197 222 255
197 222 255
197 222 255
197 222 255
197 222 255
197 222 255
198 223 255
198 223 255
198 223 255
198 223 255
199 223 255
199 223 255
199 223 255
199 224 255
200 224 255
200 224 255
200 224 255
201 224 255
201 224 255
201 224 255
201 225 255
202 225 255
202 225 255
202 225 255
202 225 255
203 225 255
203 225 255
203 226 255
203 226 255
204 226 255
204 226 255
204 226 255
204 226 255
205 226 255
205 226 255
205 227 255
205 227 255
206 227 255
206 227 255
206 227 255
206 227 255
206 227 255
207 227 255
207 228 255
207 228 255
207 228 255
207 227 255
206 227 255
206 227 255
206 227 255
206 227 255
205 227 255
205 227 255
205 227 255
205 226 255
205 226 255
204 226 255
204 226 255
204 226 255
204 226 255
203 226 255
203 226 255
203 225 255
203 225 255
202 225 255
202 225 255
202 225 255
201 225 255
201 224 255
201 224 255
201 224 255
200 224 255
200 224 255
200 224 255
200 224 255
199 223 255
199 223 255
199 223 255
199 223 255
198 223 255
198 223 255
198 223 255
198 223 255
198 223 255
197 222 255
197 222 255
197 222 255
197 222 255
197 222 255
197 222 255
197 222 255
197 222 255
197 222 255
197 222 255
197 222 255
197 222 255
197 222 255
197 222 255
197 222 255
197 222 255
197 222 255
197 222 255
198 223 255
198 223 255
198 223 255
198 223 255
198 223 255
199 223 255
199 223 255
199 223 255
199 223 255
200 224 255
200 224 255
200 224 255
200 224 255
201 224 255
201 224 255
201 224 255
201 225 255
202 225 255
202 225 255
202 225 255
203 225 255
203 225 255
203 226 255
203 226 255
204 226 255
204 226 255
204 226 255
204 226 255
205 226 255
205 226 255
205 227 255
205 227 255
205 227 255
206 227 255
206 227 255
206 227 255
206 227 255
207 227 255
207 228 255
207 228 255
207 228 255
208 228 255
208 228 255
207 228 255
207 228 255
207 228 255
207 228 255
206 227 255
206 227 255
206 227 255
206 227 255
206 227 255
205 227 255
205 227 255
205 227 255
205 226 255
204 226 255
204 226 255
204 226 255
204 226 255
203 226 255
203 226 255
203 225 255
203 225 255
202 225 255
202 225 255
202 225 255
202 225 255
201 225 255
201 224 255
201 224 255
201 224 255
200 224 255
200 224 255
200 224 255
200 224 255
199 223 255
199 223 255
199 223 255
199 223 255
198 223 255
198 223 255
198 223 255
198 223 255
198 223 255
198 223 255
198 223 255
198 223 255
197 223 255
197 222 255
197 222 255
197 222 255
197 223 255
197 223 255
198 223 255
198 223 255
198 223 255
198 223 255
198 223 255
198 223 255
198 223 255
198 223 255
199 223 255
199 223 255
199 223 255
199 223 255
200 224 255
200 224 255
200 224 255
200 224 255
201 224 255
201 224 255
201 224 255
201 225 255
202 225 255
202 225 255
202 225 255
202 225 255
203 225 255
203 225 255
203 226 255
203 226 255
204 226 255
204 226 255
204 226 255
204 226 255
205 226 255
205 227 255
205 227 255
205 227 255
206 227 255
206 227 255
206 227 255
206 227 255
207 227 255
207 228 255
207 228 255
207 228 255
207 228 255
208 228 255
208 228 255
208 228 255
208 228 255
208 228 255
208 228 255
208 228 255
207 228 255
207 228 255
207 228 255
207 227 255
207 227 255
206 227 255
206 227 255
206 227 255
206 227 255
205 227 255
205 227 255
205 227 255
205 226 255
204 226 255
204 226 255
204 226 255
204 226 255
203 226 255
203 226 255
203 225 255
203 225 255
202 225 255
202 225 255
202 225 255
202 225 255
201 225 255
201 224 255
201 224 255
200 224 255
200 224 255
200 224 255
200 224 255
200 224 255
199 224 255
199 223 255
199 223 255
199 223 255
199 223 255
199 223 255
198 223 255
198 223 255
198 223 255
198 223 255
198 223 255
198 223 255
198 223 255
198 223 255
198 223 255
198 223 255
198 223 255
198 223 255
199 223 255
199 223 255
199 223 255
199 223 255
199 223 255
199 224 255
200 224 255
200 224 255
200 224 255
200 224 255
201 224 255
201 224 255
201 224 255
201 225 255
202 225 255
202 225 255
202 225 255
202 225 255
203 225 255
203 225 255
203 226 255
203 226 255
204 226 255
204 226 255
204 226 255
204 226 255
205 226 255
205 226 255
205 227 255
205 227 255
206 227 255
206 227 255
206 227 255
206 227 255
207 227 255
207 227 255
207 228 255
207 228 255
207 228 255
208 228 255
208 228 255
208 228 255
208 228 255
208 228 255
209 229 255
209 229 255
209 228 255
208 228 255
208 228 255
208 228 255
208 228 255
208 228 255
207 228 255
207 228 255
207 228 255
207 227 255
206 227 255
206 227 255
206 227 255
206 227 255
206 227 255
205 227 255
205 227 255
205 226 255
205 226 255
204 226 255
204 226 255
204 226 255
204 226 255
203 226 255
203 226 255
203 225 255
203 225 255
202 225 255
202 225 255
202 225 255
202 225 255
201 225 255
201 224 255
201 224 255
201 224 255
200 224 255
200 224 255
200 224 255
200 224 255
200 224 255
200 224 255
199 224 255
199 223 255
199 223 255
199 223 255
199 223 255
199 223 255
199 223 255
199 223 255
199 223 255
199 223 255
199 223 255
199 223 255
199 223 255
199 224 255
200 224 255
200 224 255
200 224 255
200 224 255
200 224 255
200 224 255
201 224 255
201 224 255
201 224 255
201 225 255
202 225 255
202 225 255
202 225 255
202 225 255
203 225 255
203 225 255
203 226 255
203 226 255
204 226 255
204 226 255
204 226 255
204 226 255
205 226 255
205 226 255
205 227 255
205 227 255
206 227 255
206 227 255
206 227 255
206 227 255
207 227 255
207 227 255
207 228 255
207 228 255
207 228 255
208 228 255
208 228 255
208 228 255
208 228 255
208 228 255
209 228 255
209 229 255
209 229 255
209 229 255
209 229 255
209 229 255
209 229 255
209 229 255
209 229 255
208 228 255
208 228 255
208 228 255
208 228 255
208 228 255
207 228 255
207 228 255
207 228 255
207 228 255
206 227 255
206 227 255
206 227 255
206 227 255
206 227 255
205 227 255
205 227 255
205 226 255
205 226 255
204 226 255
204 226 255
204 226 255
204 226 255
203 226 255
203 225 255
203 225 255
203 225 255
202 225 255
202 225 255
202 225 255
202 225 255
201 225 255
201 225 255
201 224 255
201 224 255
201 224 255
200 224 255
200 224 255
200 224 255
200 224 255
200 224 255
200 224 255
200 224 255
200 224 255
200 224 255
200 224 255
200 224 255
200 224 255
200 224 255
200 224 255
200 224 255
200 224 255
200 224 255
200 224 255
201 224 255
201 224 255
201 224 255
201 224 255
201 225 255
202 225 255
202 225 255
202 225 255
202 225 255
203 225 255
203 225 255
203 225 255
203 226 255
204 226 255
204 226 255
204 226 255
204 226 255
205 226 255
205 226 255
205 227 255
205 227 255
206 227 255
206 227 255
206 227 255
206 227 255
206 227 255
207 227 255
207 228 255
207 228 255
207 228 255
208 228 255
208 228 255
208 228 255
208 228 255
208 228 255
209 229 255
209 229 255
209 229 255
209 229 255
209 229 255
209 229 255
210 229 255
210 229 255
210 229 255
210 229 255
209 229 255
209 229 255
209 229 255
209 229 255
209 229 255
208 228 255
208 228 255
208 228 255
208 228 255
208 228 255
207 228 255
207 228 255
207 228 255
207 228 255
207 227 255
206 227 255
206 227 255
206 227 255
206 227 255
205 227 255
205 227 255
205 226 255
205 226 255
204 226 255
204 226 255
204 226 255
204 226 255
203 226 255
203 226 255
203 225 255
203 225 255
202 225 255
202 225 255
202 225 255
202 225 255
202 225 255
202 225 255
201 225 255
201 224 255
201 224 255
201 224 255
201 224 255
201 224 255
201 224 255
201 224 255
201 224 255
201 224 255
201 224 255
201 224 255
201 224 255
201 224 255
201 224 255
201 224 255
201 225 255
201 225 255
201 225 255
202 225 255
202 225 255
202 225 255
202 225 255
203 225 255
203 225 255
203 225 255
203 226 255
203 226 255
204 226 255
204 226 255
204 226 255
204 226 255
205 226 255
205 226 255
205 227 255
205 227 255
206 227 255
206 227 255
206 227 255
206 227 255
207 227 255
207 228 255
207 228 255
207 228 255
207 228 255
208 228 255
208 228 255
208 228 255
208 228 255
208 228 255
209 229 255
209 229 255
209 229 255
209 229 255
209 229 255
210 229 255
210 229 255
210 229 255
210 229 255
211 230 255
210 230 255
210 229 255
210 229 255
210 229 255
210 229 255
210 229 255
210 229 255
209 229 255
209 229 255
209 229 255
208 228 255
207 228 255
208 228 255
207 228 255
208 228 255
208 228 255
208 228 255
207 228 255
207 228 255
207 228 255
207 227 255
206 227 255
206 227 255
206 227 255
206 227 255
205 227 255
205 227 255
205 227 255
205 226 255
204 226 255
204 226 255
204 226 255
204 226 255
204 226 255
203 226 255
203 226 255
203 225 255
203 225 255
203 225 255
202 225 255
202 225 255
202 225 255
202 225 255
202 225 255
202 225 255
202 225 255
202 225 255
202 225 255
202 225 255
202 225 255
202 225 255
202 225 255
202 225 255
202 225 255
202 225 255
202 225 255
202 225 255
202 225 255
202 225 255
203 225 255
203 225 255
203 225 255
203 226 255
203 226 255
204 226 255
204 226 255
204 226 255
204 226 255
205 226 255
205 226 255
205 227 255
205 227 255
205 227 255
206 227 255
206 227 255
206 227 255
206 227 255
207 227 255
207 228 255
207 228 255
207 228 255
207 228 255
208 228 255
203 226 247
202 226 246
196 224 236
199 225 241
197 224 236
202 226 244
208 229 254
209 229 255
209 229 255
210 229 255
210 229 255
210 229 255
210 229 255
210 229 255
211 230 255
211 230 255
211 230 255
211 230 255
211 230 255
211 230 255
209 229 255
208 228 255
205 226 255
203 225 255
200 224 255
198 223 255
197 222 255
196 221 255
195 221 255
194 221 255
194 221 255
194 221 255
195 221 255
197 222 255
199 224 255
203 225 255
204 226 255
207 228 255
207 228 255
207 228 255
207 228 255
206 227 255
206 227 255
206 227 255
206 227 255
206 227 255
205 227 255
205 227 255
205 227 255
205 226 255
204 226 255
204 226 255
204 226 255
204 226 255
204 226 255
203 226 255
203 226 255
203 226 255
203 226 255
203 225 255
203 225 255
203 225 255
203 225 255
203 225 255
203 225 255
203 225 255
203 225 255
203 225 255
203 225 255
203 225 255
203 225 255
203 225 255
203 225 255
203 225 255
203 226 255
203 226 255
203 226 255
204 226 255
204 226 255
204 226 255
204 226 255
205 226 255
205 226 255
205 226 255
205 227 255
205 227 255
206 227 255
206 227 255
206 227 255
206 227 255
207 227 255
207 227 255
207 228 255
207 228 255
199 225 242
183 219 217
163 211 186
148 206 160
143 204 151
124 198 116
122 197 114
123 197 114
123 197 114
123 198 114
124 198 114
124 199 114
125 199 114
136 203 133
156 209 168
163 212 180
181 219 209
194 224 230
210 229 253
211 230 255
211 230 255
211 230 255
212 230 255
209 229 255
206 227 255
203 225 255
200 224 255
198 223 255
196 222 255
195 221 255
193 220 255
192 219 255
191 219 255
189 218 255
189 218 255
188 217 255
187 217 255
187 217 255
187 217 255
186 217 255
187 217 255
188 217 255
189 218 255
192 220 255
196 222 255
201 225 255
206 227 255
207 228 255
207 228 255
207 228 255
207 227 255
206 227 255
206 227 255
206 227 255
206 227 255
206 227 255
205 227 255
205 227 255
205 227 255
205 226 255
205 226 255
204 226 255
204 226 255
204 226 255
204 226 255
204 226 255
204 226 255
204 226 255
204 226 255
204 226 255
204 226 255
203 226 255
204 226 255
203 226 255
204 226 255
204 226 255
204 226 255
204 226 255
204 226 255
204 226 255
204 226 255
204 226 255
204 226 255
205 226 255
205 226 255
205 227 255
205 227 255
205 227 255
206 227 255
206 227 255
206 227 255
206 227 255
206 227 255
207 227 255
207 228 255
207 228 255
207 228 255
192 222 231
163 211 184
139 202 144
121 196 114
119 195 114
119 194 114
118 194 114
117 194 114
118 194 114
118 194 114
118 194 114
119 194 114
119 195 114
120 195 114
120 196 114
121 196 114
122 197 114
123 198 114
124 198 114
125 199 114
126 200 114
133 203 125
158 211 169
185 220 213
208 229 249
205 227 255
202 225 255
200 224 255
198 223 255
197 222 255
195 221 255
193 220 255
192 220 255
191 219 255
190 218 255
189 218 255
187 217 255
186 217 255
186 216 255
185 216 255
184 216 255
183 215 255
183 215 255
183 215 255
183 215 255
183 215 255
184 215 255
185 216 255
187 217 255
191 219 255
195 221 255
205 226 255
208 228 255
208 228 255
207 228 255
207 228 255
207 228 255
207 228 255
207 227 255
206 227 255
206 227 255
206 227 255
206 227 255
206 227 255
205 227 255
205 227 255
205 227 255
205 227 255
205 226 255
205 226 255
205 226 255
205 226 255
205 226 255
205 226 255
205 226 255
205 226 255
205 226 255
205 226 255
205 226 255
205 226 255
205 226 255
205 226 255
205 227 255
205 227 255
205 227 255
205 227 255
206 227 255
206 227 255
206 227 255
206 227 255
206 227 255
207 227 255
207 227 255
207 228 255
207 228 255
207 228 255
208 228 255
205 227 251
184 219 218
142 203 150
120 196 114
118 194 114
117 193 114
116 193 114
116 192 114
115 192 114
115 192 114
116 192 114
116 192 114
116 193 114
117 193 114
117 193 114
118 194 114
118 194 114
119 195 114
120 195 114
121 196 114
121 196 114
122 197 114
123 198 114
124 199 114
125 199 114
126 200 114
128 201 114
130 203 116
202 225 255
200 224 255
198 223 255
197 222 255
195 221 255
194 221 255
193 220 255
191 219 255
190 219 255
189 218 255
188 218 255
187 217 255
186 216 255
185 216 255
184 216 255
183 215 255
183 215 255
182 214 255
182 214 255
181 214 255
181 214 255
181 214 255
182 214 255
182 215 255
184 215 255
186 216 255
189 218 255
196 222 255
205 227 255
208 228 255
208 228 255
208 228 255
208 228 255
208 228 255
207 228 255
207 228 255
207 228 255
207 228 255
207 227 255
206 227 255
206 227 255
206 227 255
206 227 255
206 227 255
206 227 255
202 222 252
170 183 225
156 164 213
138 142 197
124 122 188
135 136 195
138 141 197
155 164 212
177 191 231
203 223 252
206 227 255
206 227 255
206 227 255
206 227 255
206 227 255
206 227 255
207 227 255
207 227 255
207 228 255
207 228 255
207 228 255
208 228 255
208 228 255
208 228 255
208 228 255
208 228 254
177 216 206
133 201 135
119 195 114
117 193 114
116 192 114
115 192 114
115 191 114
114 191 114
114 191 114
114 191 114
115 192 114
115 192 114
115 192 114
116 192 114
116 193 114
117 193 114
117 194 114
118 194 114
119 195 114
119 195 114
120 196 114
121 196 114
122 197 114
122 197 114
123 198 114
124 199 114
125 199 114
126 200 114
127 201 114
200 224 255
199 223 255
198 223 255
197 222 255
195 221 255
194 221 255
193 220 255
192 220 255
191 219 255
190 218 255
189 218 255
188 217 255
187 217 255
186 216 255
185 216 255
184 215 255
183 215 255
182 215 255
182 214 255
181 214 255
181 214 255
181 214 255
181 214 255
181 214 255
181 214 255
182 215 255
184 215 255
186 217 255
190 218 255
199 223 255
207 228 255
209 229 255
209 229 255
208 228 255
208 228 255
208 228 255
208 228 255
208 228 255
208 228 255
208 228 255
207 228 255
207 228 255
207 228 255
197 215 247
155 163 212
111 104 175
108 99 175
109 99 169
108 99 170
108 99 173
110 99 172
108 98 168
108 99 171
107 98 168
112 107 177
159 168 213
198 217 247
207 228 255
207 228 255
207 228 255
208 228 255
208 228 255
208 228 255
208 228 255
208 228 255
208 228 255
209 228 255
209 229 255
209 229 255
190 221 226
142 204 150
120 195 114
118 194 114
116 193 114
115 192 114
115 191 114
114 191 114
114 191 114
114 191 114
114 191 114
114 191 114
115 192 114
115 192 114
116 192 114
116 193 114
117 193 114
117 193 114
118 194 114
119 194 114
119 195 114
120 195 114
120 196 114
121 196 114
122 197 114
123 197 114
123 198 114
124 198 114
125 199 114
126 200 114
127 200 114
201 224 255
199 224 255
198 223 255
197 222 255
196 222 255
195 221 255
194 221 255
193 220 255
192 220 255
191 219 255
190 219 255
189 218 255
188 218 255
187 217 255
186 217 255
186 216 255
185 216 255
184 215 255
183 215 255
183 215 255
182 214 255
182 214 255
181 214 255
181 214 255
181 214 255
182 214 255
183 215 255
184 215 255
186 216 255
189 218 255
195 221 255
205 227 255
210 229 255
210 229 255
209 229 255
209 229 255
209 229 255
209 229 255
209 229 255
209 229 255
208 228 255
208 228 255
176 189 228
111 103 177
108 99 173
108 99 169
108 98 166
108 98 166
106 97 162
107 98 166
107 98 161
107 98 166
108 99 168
109 99 170
107 98 168
105 97 161
111 106 172
169 181 223
208 228 255
208 228 255
209 228 255
209 229 255
209 229 255
209 229 255
209 229 255
209 229 255
210 229 255
210 229 255
177 217 203
128 199 123
119 195 114
117 193 114
116 193 114
115 192 114
115 192 114
115 191 114
114 191 114
115 191 114
115 192 114
115 192 114
115 192 114
116 192 114
116 193 114
117 193 114
117 193 114
118 194 114
118 194 114
119 195 114
119 195 114
120 195 114
121 196 114
121 196 114
122 197 114
122 197 114
123 198 114
124 198 114
125 199 114
125 199 114
126 200 114
127 200 114
201 225 255
200 224 255
199 224 255
198 223 255
197 222 255
197 222 255
196 222 255
195 221 255
194 221 255
193 220 255
192 220 255
191 219 255
190 219 255
189 218 255
189 218 255
188 217 255
187 217 255
186 217 255
185 216 255
185 216 255
184 216 255
184 215 255
183 215 255
183 215 255
183 215 255
183 215 255
183 215 255
184 215 255
185 216 255
187 217 255
190 218 255
194 221 255
205 226 255
211 230 255
210 230 255
210 229 255
210 229 255
210 229 255
210 229 255
210 229 255
209 228 255
150 156 206
108 98 164
108 98 165
105 97 162
108 99 167
106 97 164
106 97 163
109 99 166
108 98 160
105 96 158
108 98 164
108 98 164
107 98 164
106 97 159
106 98 166
107 98 166
106 98 165
153 161 204
210 229 255
210 229 255
210 229 255
210 229 255
210 229 255
210 229 255
210 230 255
209 229 253
166 213 186
123 198 114
120 195 114
118 194 114
117 193 114
116 193 114
116 192 114
116 192 114
116 192 114
116 192 114
116 192 114
116 193 114
116 193 114
117 193 114
117 193 114
118 194 114
118 194 114
119 194 114
119 195 114
120 195 114
120 196 114
121 196 114
121 196 114
122 197 114
122 197 114
123 198 114
123 198 114
124 199 114
125 199 114
125 199 114
126 200 114
127 200 114
127 201 114
203 225 255
202 225 255
201 224 255
200 224 255
199 223 255
198 223 255
198 223 255
197 222 255
196 222 255
195 221 255
194 221 255
194 220 255
193 220 255
192 220 255
191 219 255
190 219 255
190 218 255
189 218 255
188 218 255
188 217 255
187 217 255
186 217 255
186 216 255
186 216 255
186 216 255
185 216 255
185 216 255
186 216 255
186 217 255
187 217 255
189 218 255
191 219 255
196 222 255
206 227 255
212 230 255
211 230 255
211 230 255
211 230 255
211 230 255
211 230 255
156 163 206
108 98 164
107 98 163
107 98 160
105 97 156
107 98 162
108 98 162
108 98 163
107 98 163
106 97 158
107 97 153
109 99 166
110 100 171
108 98 161
104 97 155
105 97 161
106 98 162
104 96 161
104 96 159
158 166 207
211 230 255
211 230 255
211 230 255
211 230 255
211 230 255
210 230 253
165 213 181
124 198 114
121 196 114
119 195 114
118 194 114
118 194 114
117 193 114
117 193 114
117 193 114
117 193 114
117 193 114
117 194 114
118 194 114
118 194 114
118 194 114
119 195 114
119 195 114
120 195 114
120 196 114
121 196 114
121 196 114
122 197 114
122 197 114
123 197 114
123 198 114
124 198 114
124 199 114
125 199 114
125 199 114
126 200 114
126 200 114
127 201 114
127 201 114
128 201 114
204 226 255
204 226 255
203 225 255
202 225 255
201 225 255
201 224 255
200 224 255
199 223 255
198 223 255
198 223 255
197 222 255
196 222 255
195 221 255
195 221 255
194 221 255
194 220 255
193 220 255
192 220 255
192 219 255
191 219 255
190 219 255
190 218 255
189 218 255
189 218 255
188 218 255
188 218 255
188 218 255
188 218 255
189 218 255
189 218 255
190 219 255
192 220 255
194 221 255
199 223 255
208 228 255
212 231 255
212 231 255
212 231 255
212 230 255
172 183 218
108 98 163
107 98 166
108 98 159
107 98 156
107 97 156
109 99 162
107 97 153
108 98 157
107 97 154
107 97 149
106 97 163
106 97 159
107 97 149
105 97 155
107 98 164
107 98 158
104 96 151
104 96 154
104 97 162
103 96 154
178 190 224
212 230 255
212 231 255
212 231 255
212 231 255
168 215 186
126 200 114
123 198 114
121 196 114
120 196 114
120 195 114
119 195 114
119 195 114
119 195 114
119 195 114
119 195 114
119 195 114
119 195 114
120 195 114
120 196 114
121 196 114
121 196 114
121 196 114
122 197 114
122 197 114
123 197 114
123 198 114
123 198 114
124 198 114
124 199 114
125 199 114
125 199 114
126 200 114
126 200 114
127 200 114
127 201 114
128 201 114
128 202 114
129 202 114
129 202 114
206 227 255
206 227 255
205 227 255
204 226 255
204 226 255
203 225 255
202 225 255
202 225 255
201 224 255
200 224 255
200 224 255
199 223 255
199 223 255
198 223 255
197 222 255
197 222 255
196 222 255
196 222 255
195 221 255
195 221 255
194 221 255
193 220 255
193 220 255
192 220 255
192 220 255
192 220 255
192 220 255
192 220 255
192 220 255
192 220 255
193 220 255
194 221 255
196 221 255
198 223 255
203 225 255
212 230 255
213 231 255
213 231 255
201 217 244
111 105 161
106 97 155
108 98 160
106 97 159
106 97 153
107 98 158
107 98 154
108 98 154
107 97 151
105 96 150
108 98 162
107 97 156
108 98 161
106 96 148
106 97 155
106 97 155
105 96 148
105 97 160
103 96 151
103 96 146
104 97 162
105 104 153
205 222 247
213 231 255
214 231 255
195 224 227
128 201 114
125 199 114
123 198 114
122 197 114
122 197 114
122 197 114
121 196 114
121 196 114
121 196 114
121 196 114
121 196 114
122 197 114
122 197 114
122 197 114
122 197 114
123 198 114
123 198 114
124 198 114
124 198 114
124 199 114
125 199 114
125 199 114
125 199 114
126 200 114
126 200 114
127 200 114
127 201 114
127 201 114
128 201 114
128 202 114
129 202 114
129 202 114
129 203 114
130 203 114
130 203 114
208 228 255
208 228 255
207 228 255
207 227 255
206 227 255
206 227 255
205 227 255
204 226 255
204 226 255
203 226 255
203 225 255
202 225 255
202 225 255
201 225 255
201 224 255
200 224 255
200 224 255
199 223 255
199 223 255
198 223 255
198 223 255
197 223 255
197 222 255
197 222 255
196 222 255
196 222 255
196 222 255
196 222 255
196 222 255
196 222 255
196 222 255
195 220 254
185 207 244
192 214 248
202 225 255
209 229 255
215 232 255
215 232 255
170 179 214
105 96 153
104 95 148
106 97 151
106 97 152
106 97 155
108 98 154
106 97 148
106 96 145
107 97 154
107 97 158
107 97 156
107 98 156
105 96 146
107 97 156
106 97 155
105 96 145
106 97 153
105 97 154
106 98 156
103 96 150
100 96 146
101 95 146
156 165 198
215 232 255
215 232 255
145 208 142
128 201 114
118 186 108
116 182 108
123 196 113
124 199 114
124 198 114
123 198 114
124 198 114
124 198 114
124 198 114
124 198 114
124 199 114
124 199 114
125 199 114
125 199 114
125 199 114
126 200 114
126 200 114
126 200 114
127 200 114
127 201 114
127 201 114
127 201 114
128 201 114
128 202 114
129 202 114
129 202 114
129 202 114
130 203 114
130 203 114
130 203 114
131 203 114
131 204 114
131 204 114
132 204 114
210 230 255
210 229 255
210 229 255
209 229 255
209 228 255
208 228 255
208 228 255
208 228 255
207 228 255
207 227 255
206 227 255
206 227 255
205 227 255
205 226 255
204 226 255
204 226 255
204 226 255
203 226 255
203 225 255
202 225 255
202 225 255
202 225 255
201 224 255
201 224 255
200 224 255
200 224 255
200 224 255
200 224 255
200 224 255
200 224 255
188 209 244
118 114 182
105 96 172
103 95 169
140 145 202
201 220 249
214 232 255
212 229 253
112 105 167
106 97 157
103 95 145
106 96 149
106 96 152
105 96 143
103 94 136
107 97 148
106 96 155
104 95 148
105 95 134
106 97 144
106 97 150
106 97 146
106 96 140
107 97 154
104 96 147
104 95 142
104 96 145
104 96 150
102 96 144
100 95 139
99 93 140
99 97 145
210 225 250
187 222 211
127 197 111
86 129 84
57 81 63
63 86 69
77 112 81
115 179 106
126 200 114
126 200 114
126 200 114
126 200 114
126 200 114
127 201 114
127 201 114
127 201 114
127 201 114
128 201 114
128 201 114
128 202 114
128 202 114
129 202 114
129 202 114
129 202 114
129 202 114
130 203 114
130 203 114
130 203 114
131 203 114
131 204 114
131 204 114
131 204 114
132 204 114
132 204 114
132 205 114
132 205 114
133 205 114
133 205 114
213 231 255
212 231 255
212 230 255
212 230 255
211 230 255
211 230 255
211 230 255
210 229 255
210 229 255
210 229 255
209 229 255
209 229 255
209 229 255
209 228 255
208 228 255
208 228 255
207 228 255
207 228 255
207 228 255
206 227 255
206 227 255
206 227 255
206 227 255
205 227 255
205 227 255
205 227 255
205 227 255
205 226 255
205 226 255
197 217 248
117 112 171
106 97 162
105 96 166
100 91 161
100 91 168
123 124 180
212 229 254
185 195 226
103 94 155
107 98 160
106 96 145
105 96 147
107 97 153
106 96 152
107 97 152
104 95 143
106 97 147
106 97 147
106 96 151
106 96 147
102 94 141
105 95 145
105 97 149
103 94 133
103 95 141
105 96 145
106 97 155
104 96 147
102 95 136
101 95 139
98 94 141
94 92 136
184 197 221
154 209 154
75 114 72
51 76 56
56 81 60
61 84 67
62 84 65
68 94 72
125 196 111
129 202 114
129 202 114
129 202 114
130 203 114
130 203 114
130 203 114
130 203 114
130 203 114
130 203 114
130 203 114
131 203 114
131 204 114
131 204 114
131 204 114
131 204 114
132 204 114
132 204 114
132 205 114
132 205 114
132 205 114
133 205 114
133 205 114
133 205 114
133 206 114
134 206 114
134 206 114
134 206 114
134 206 114
134 206 114
215 232 255
215 232 255
215 232 255
214 232 255
214 232 255
214 231 255
214 231 255
214 231 255
213 231 255
213 231 255
213 231 255
213 231 255
212 230 255
212 230 255
212 230 255
211 230 255
211 230 255
211 230 255
211 230 255
211 230 255
211 230 255
210 229 255
210 229 255
210 229 255
210 229 255
210 229 255
209 229 255
209 229 255
209 229 255
173 184 218
107 97 158
106 96 153
102 93 153
98 89 149
89 80 144
90 82 153
175 186 220
155 161 193
104 94 148
105 95 147
105 95 144
106 96 144
104 95 141
105 96 143
104 94 141
106 96 149
106 96 143
107 97 149
105 95 134
107 97 145
109 99 164
101 93 129
105 96 143
104 94 136
107 97 150
106 97 150
101 93 132
104 95 142
100 93 135
100 94 137
98 93 130
96 93 128
143 158 173
114 169 102
42 65 45
48 73 50
50 74 51
58 80 61
61 83 65
65 85 67
105 159 95
132 205 114
132 205 114
132 205 114
132 205 114
133 205 114
133 205 114
133 205 114
133 205 114
133 205 114
133 205 114
133 205 114
133 206 114
134 206 114
134 206 114
134 206 114
134 206 114
134 206 114
134 206 114
135 207 114
135 207 114
135 207 114
135 207 114
135 207 114
135 207 114
135 207 114
135 207 114
136 207 114
136 208 114
136 208 114
218 233 255
217 233 255
217 233 255
217 233 255
217 233 255
217 233 255
217 233 255
217 233 255
216 233 255
216 233 255
216 233 255
216 233 255
216 232 255
216 233 255
215 232 255
216 232 255
215 232 255
215 232 255
215 232 255
215 232 255
215 232 255
215 232 255
215 232 255
214 232 255
214 232 255
214 232 255
215 232 255
214 231 255
212 231 252
126 133 163
104 94 137
102 93 144
104 94 145
99 90 144
87 77 135
79 70 132
140 146 185
129 129 168
101 93 139
104 95 139
102 93 133
108 98 152
105 96 142
106 96 147
106 96 147
106 96 145
105 95 140
106 96 149
108 97 150
107 97 147
104 94 130
105 96 140
105 95 140
105 95 134
103 95 143
103 95 143
101 93 132
104 96 147
102 95 139
101 93 133
97 92 136
93 90 123
99 123 120
72 112 61
37 58 37
46 69 44
53 75 51
60 83 63
57 79 53
60 83 59
89 130 80
135 207 114
135 207 114
135 207 114
135 207 114
135 207 114
136 207 114
135 207 114
136 207 114
136 207 114
136 207 114
136 208 114
136 208 114
136 208 114
136 208 114
136 208 114
136 208 114
136 208 114
136 208 114
137 208 114
136 208 114
137 208 114
137 208 114
137 208 114
137 208 114
137 209 114
137 209 114
137 209 114
137 209 114
137 209 114
220 235 255
220 235 255
220 235 255
220 235 255
220 235 255
220 235 255
220 235 255
220 235 255
219 235 255
220 235 255
219 234 255
220 235 255
219 234 255
220 235 255
219 235 255
219 234 255
219 234 255
219 234 255
219 234 255
219 234 255
219 234 255
219 234 255
219 234 255
219 234 255
219 234 255
219 234 255
219 234 255
219 234 255
180 220 194
106 105 141
102 93 131
101 92 134
96 88 127
98 87 139
89 80 133
70 61 110
84 81 119
140 141 170
102 93 136
102 93 129
102 93 133
104 95 135
103 93 130
104 94 140
105 95 139
104 94 135
106 96 140
105 95 137
106 95 135
103 94 134
104 95 145
104 94 134
107 97 142
103 94 133
101 94 136
100 93 136
104 95 134
100 93 126
100 93 126
95 91 123
97 92 129
92 89 122
92 112 98
44 67 38
29 47 23
45 68 44
48 71 41
53 77 49
56 78 47
60 82 59
66 89 58
137 208 114
138 209 114
138 209 114
138 210 114
138 209 114
138 209 114
138 209 114
138 210 114
138 210 114
138 209 114
138 210 114
138 210 114
138 210 114
138 210 114
138 210 114
139 210 114
139 210 114
139 210 114
139 210 114
139 210 114
139 210 114
139 210 114
139 210 114
139 210 114
139 210 114
139 210 114
139 210 114
139 210 114
139 210 114
222 236 255
222 236 255
222 236 255
223 236 255
223 236 255
223 236 255
223 236 255
223 236 255
223 236 255
223 236 255
223 236 255
223 236 255
223 237 255
223 237 255
223 237 255
222 236 252
220 234 248
220 234 246
215 230 233
216 231 234
217 231 236
214 229 227
212 228 223
215 230 230
212 227 221
211 226 218
213 228 224
212 228 223
178 212 165
101 95 125
99 90 127
100 92 133
98 89 136
94 84 120
84 75 106
74 65 96
73 70 89
111 107 135
105 95 141
102 93 134
104 94 131
104 94 137
103 94 129
105 95 139
102 93 127
103 93 125
106 96 140
105 95 142
101 92 125
104 95 135
106 96 142
105 96 134
102 93 126
103 93 129
104 95 136
101 94 131
103 95 137
102 94 136
99 92 116
96 91 127
92 89 113
91 87 117
100 120 115
43 67 34
34 53 26
40 62 34
49 71 42
54 77 48
57 79 47
61 82 54
67 92 55
126 195 81
133 202 96
135 205 102
134 204 100
135 205 101
135 205 102
134 204 100
136 206 104
137 207 105
138 208 108
138 208 107
139 209 109
139 210 110
140 211 112
141 212 114
141 212 114
141 211 114
141 211 114
141 211 114
141 211 114
141 211 114
141 211 114
141 211 114
141 211 114
141 211 114
141 211 114
141 211 114
141 211 114
140 211 114
209 224 204
204 221 193
199 217 171
199 217 171
194 213 153
192 212 147
191 211 137
185 207 122
187 207 122
188 208 130
177 200 72
180 202 84
177 200 67
176 198 36
174 198 0
173 197 0
174 197 0
173 197 0
172 196 0
173 196 0
172 196 0
173 197 0
171 195 0
170 195 0
172 197 0
171 195 0
173 197 0
172 196 0
166 194 0
110 117 108
99 90 117
97 88 124
91 82 114
89 80 95
83 74 100
70 62 79
103 107 87
128 129 138
102 92 127
102 93 136
101 91 127
102 93 131
99 90 118
105 95 135
102 93 122
99 91 117
104 95 136
103 94 126
105 95 137
103 94 130
103 94 132
103 94 121
106 96 141
102 93 126
101 93 129
101 93 134
101 93 128
98 90 129
99 93 124
97 92 125
93 89 115
90 88 102
105 135 106
56 89 23
30 48 18
42 64 34
47 68 44
53 76 42
54 75 48
58 78 47
75 107 51
110 176 0
109 176 0
110 176 0
109 176 0
109 176 0
110 176 0
110 176 0
111 177 0
109 176 0
109 176 0
110 177 0
110 177 0
109 175 0
110 176 0
111 178 0
113 179 25
113 180 30
115 183 45
115 182 42
115 183 45
121 188 62
119 187 59
122 189 64
123 191 69
124 192 73
124 193 75
126 195 80
129 197 84
133 202 95
174 197 0
175 198 0
175 198 0
175 198 0
174 197 0
175 198 0
174 198 0
175 198 0
174 197 0
174 198 0
173 197 0
173 197 0
172 197 0
172 196 0
174 198 0
174 197 0
173 197 0
172 195 0
171 195 0
171 194 0
169 193 0
169 192 0
171 196 0
168 191 0
170 194 0
165 190 0
165 191 0
159 185 0
136 171 0
114 127 78
96 87 108
98 88 120
96 86 108
84 76 78
84 76 80
70 62 65
143 159 33
152 157 163
98 89 115
98 89 111
100 91 126
100 91 121
102 93 131
105 95 131
101 92 125
102 93 129
103 94 131
105 95 135
102 94 131
105 94 136
105 95 139
103 94 126
102 93 133
102 93 124
100 92 128
103 94 127
102 94 131
101 93 125
97 90 122
95 89 107
93 88 114
87 85 97
138 149 145
83 134 10
34 54 23
39 59 27
44 65 29
48 71 32
54 76 41
55 75 44
84 127 30
105 167 0
105 168 0
106 171 0
106 169 0
107 173 0
108 175 0
109 175 0
108 174 0
109 175 0
109 176 0
108 174 0
109 176 0
109 175 0
110 177 0
109 176 0
110 177 0
110 177 0
110 177 0
109 176 0
110 177 0
109 176 0
111 177 0
109 176 0
109 176 0
110 177 0
110 177 0
110 177 0
111 177 0
110 177 0
174 198 0
174 198 0
174 197 0
175 198 0
174 198 0
175 198 0
173 197 0
171 196 0
175 198 0
174 197 0
173 197 0
171 194 0
171 195 0
174 197 0
171 195 0
170 193 0
170 194 0
170 194 0
169 194 0
167 190 0
170 195 0
169 191 0
169 193 0
167 191 0
163 186 0
154 179 0
162 185 0
148 172 0
147 171 0
125 145 25
98 94 82
93 84 98
93 83 92
88 79 79
77 69 57
96 94 58
169 191 0
154 170 60
97 88 115
100 90 118
100 91 125
101 91 124
102 93 122
100 91 107
103 94 129
102 92 122
101 92 121
102 93 126
101 92 124
102 93 134
101 92 116
99 91 117
96 88 107
99 91 124
100 92 120
98 90 111
96 89 114
99 92 123
97 90 120
94 89 97
92 88 110
88 86 103
139 157 44
127 179 8
55 87 15
39 58 24
39 58 23
49 70 33
54 74 38
56 76 30
87 136 14
99 159 0
98 156 0
97 155 0
103 167 0
102 165 0
103 166 0
102 166 0
106 171 0
107 171 0
105 170 0
107 173 0
105 170 0
108 174 0
108 174 0
109 176 0
108 175 0
109 176 0
107 173 0
111 177 0
107 174 0
109 175 0
108 175 0
109 176 0
109 176 0
110 177 0
110 177 0
109 176 0
109 175 0
110 177 0
175 198 0
174 197 0
174 197 0
174 197 0
174 196 0
174 198 0
174 197 0
174 197 0
173 196 0
170 195 0
169 192 0
172 195 0
174 197 0
172 195 0
172 195 0
170 195 0
168 191 0
168 191 0
170 194 0
166 189 0
165 188 0
168 192 0
168 191 0
162 184 0
162 187 0
158 181 0
155 177 0
151 170 0
133 151 0
126 139 0
101 107 36
85 78 70
85 77 65
82 73 52
93 94 38
154 173 25
174 197 0
170 192 22
100 95 97
100 91 108
100 91 110
100 91 121
101 91 111
101 92 118
102 92 114
102 92 126
103 93 133
100 90 114
98 89 117
100 91 125
99 90 113
100 91 122
99 91 113
97 89 115
100 91 117
96 89 116
95 89 112
98 90 116
95 88 108
93 87 106
90 87 101
92 94 87
170 193 8
153 188 0
95 153 0
57 86 14
44 63 24
46 63 29
51 70 27
66 100 14
77 119 0
90 145 0
90 145 0
99 160 0
99 162 0
102 164 0
100 163 0
100 164 0
100 163 0
103 166 0
105 171 0
107 172 0
106 171 0
107 173 0
106 172 0
106 172 0
108 174 0
108 174 0
107 174 0
107 175 0
109 176 0
108 175 0
106 173 0
108 175 0
108 176 0
109 175 0
108 175 0
110 177 0
109 176 0
110 176 0
173 196 0
175 198 0
173 197 0
171 195 0
172 196 0
174 197 0
173 197 0
171 196 0
170 193 0
170 194 0
168 193 0
171 194 0
170 192 0
169 192 0
169 193 0
168 191 0
167 189 0
168 190 0
165 188 0
167 190 0
169 194 0
158 180 0
166 188 0
160 181 0
161 182 0
156 176 0
147 165 0
148 166 0
131 146 0
132 142 0
115 126 0
106 112 0
104 108 25
114 120 25
126 137 0
166 186 0
172 196 0
170 193 0
135 146 76
96 87 103
97 88 99
98 89 107
98 89 107
97 89 108
100 91 114
99 91 103
99 90 107
102 92 127
98 89 105
103 94 127
101 92 124
103 93 130
97 90 104
96 89 111
96 89 105
101 92 125
96 90 102
101 92 125
94 88 107
91 87 99
86 84 94
126 139 76
172 196 0
171 196 0
110 164 0
85 137 0
67 106 0
51 80 0
54 85 0
68 106 0
72 118 0
81 133 0
83 133 0
94 152 0
98 159 0
100 161 0
99 161 0
98 160 0
102 168 0
103 166 0
103 168 0
103 170 0
103 169 0
103 170 0
106 173 0
104 172 0
107 173 0
108 175 0
105 171 0
106 173 0
108 173 0
106 173 0
109 175 0
107 174 0
108 174 0
109 176 0
109 177 0
107 175 0
108 176 0
110 176 0
173 197 0
173 197 0
172 196 0
173 197 0
175 198 0
172 195 0
170 195 0
172 196 0
167 191 0
172 195 0
169 193 0
168 193 0
170 192 0
167 190 0
166 189 0
169 193 0
172 196 0
163 185 0
162 185 0
169 191 0
166 188 0
162 184 0
157 178 0
158 179 0
157 178 0
154 174 0
148 165 0
144 161 0
137 153 0
124 135 0
133 146 0
116 124 0
120 128 0
117 125 0
149 166 0
167 190 0
173 196 0
169 191 0
166 187 18
95 88 94
93 84 93
97 88 108
97 88 107
96 87 99
98 89 108
97 88 111
97 89 107
99 90 113
98 88 108
98 90 116
98 89 111
98 90 107
96 89 110
101 92 117
100 92 123
94 88 108
96 89 98
93 86 104
91 86 97
87 82 89
84 83 79
153 176 25
169 194 0
164 189 0
154 187 0
85 141 0
70 115 0
63 108 0
68 111 0
76 127 0
74 120 0
85 139 0
79 133 0
91 151 0
92 155 0
95 157 0
96 158 0
97 161 0
97 162 0
101 168 0
99 164 0
99 165 0
99 164 0
102 169 0
106 173 0
106 172 0
103 170 0
105 173 0
106 172 0
105 173 0
106 174 0
107 174 0
109 176 0
105 173 0
107 175 0
109 176 0
104 171 0
109 176 0
108 175 0
107 174 0
173 197 0
172 195 0
170 194 0
172 196 0
173 196 0
170 194 0
170 194 0
173 195 0
171 194 0
170 194 0
170 193 0
171 194 0
169 192 0
168 190 0
169 192 0
170 193 0
166 187 0
168 189 0
168 190 0
165 187 0
159 179 0
162 184 0
164 185 0
160 180 0
159 180 0
150 168 0
148 164 0
144 160 0
138 153 0
136 150 0
140 153 0
122 131 0
130 142 0
139 153 0
160 181 0
171 195 0
170 192 0
166 187 0
163 186 0
145 161 51
93 85 78
94 85 94
93 84 94
96 87 99
96 87 102
98 89 100
98 89 108
93 85 94
96 87 100
99 90 113
100 90 114
97 89 102
96 89 101
92 85 96
96 89 102
91 85 90
97 89 112
98 91 110
84 79 71
84 82 87
140 158 50
164 188 0
160 185 0
160 186 0
159 185 0
129 172 0
86 144 0
73 124 0
73 121 0
71 119 0
74 124 0
84 137 0
84 140 0
83 140 0
91 152 0
90 148 0
88 151 0
94 158 0
98 164 0
98 162 0
99 162 0
97 161 0
100 167 0
101 167 0
100 165 0
98 163 0
99 166 0
101 167 0
102 169 0
103 171 0
104 171 0
108 175 0
104 172 0
105 172 0
106 173 0
105 173 0
106 172 0
105 173 0
104 172 0
106 175 0
169 193 0
171 195 0
171 194 0
171 195 0
171 194 0
171 194 0
172 195 0
169 192 0
165 189 0
172 195 0
171 194 0
169 191 0
166 187 0
169 191 0
167 190 0
168 190 0
165 185 0
169 191 0
161 181 0
163 184 0
162 183 0
154 173 0
157 175 0
158 180 0
151 168 0
151 169 0
151 168 0
149 165 0
143 159 0
144 159 0
130 140 0
133 145 0
141 155 0
150 166 0
168 190 0
162 183 0
160 181 0
164 185 0
160 181 0
159 180 0
128 138 57
92 83 88
92 84 90
94 86 84
95 87 103
98 88 102
96 87 95
98 89 103
94 85 102
95 86 105
97 88 100
92 84 82
96 87 115
95 87 107
93 86 90
88 82 82
92 85 97
88 83 86
86 79 87
120 134 47
154 177 0
151 176 0
147 173 0
143 168 0
153 182 0
150 182 0
113 157 0
74 134 0
69 119 0
76 128 0
73 128 0
77 131 0
82 138 0
82 140 0
86 148 0
91 153 0
88 149 0
89 151 0
93 158 0
97 161 0
96 161 0
97 163 0
94 160 0
102 168 0
98 163 0
101 166 0
101 168 0
103 170 0
102 170 0
102 169 0
101 168 0
102 168 0
102 169 0
103 170 0
105 173 0
105 172 0
106 173 0
105 172 0
105 173 0
107 174 0
173 196 0
173 197 0
173 196 0
171 194 0
171 194 0
168 191 0
172 195 0
170 191 0
172 195 0
170 192 0
169 192 0
167 189 0
166 189 0
166 188 0
170 192 0
164 185 0
160 180 0
163 184 0
164 185 0
165 186 0
157 177 0
161 182 0
152 172 0
157 176 0
154 171 0
150 168 0
144 160 0
146 161 0
149 166 0
135 147 0
126 136 0
138 150 0
152 169 0
163 183 0
162 180 0
160 180 0
158 175 0
156 174 0
159 178 0
148 164 0
146 162 0
113 118 57
89 81 84
93 84 94
90 82 72
96 87 90
98 89 107
92 85 88
94 85 95
92 84 92
95 87 94
95 87 103
91 84 82
91 84 79
85 79 72
87 82 83
88 82 77
83 80 65
98 106 40
139 163 0
138 162 0
142 170 0
139 166 0
143 168 0
143 172 0
150 178 0
137 167 0
108 153 0
73 126 0
69 127 0
76 132 0
75 134 0
79 136 0
86 148 0
85 147 0
90 154 0
86 149 0
91 153 0
89 154 0
93 156 0
97 163 0
92 156 0
98 165 0
97 164 0
99 164 0
96 162 0
97 166 0
99 166 0
100 169 0
101 169 0
101 167 0
101 170 0
101 169 0
103 171 0
98 168 0
100 170 0
103 172 0
103 171 0
102 171 0
105 173 0
173 196 0
173 196 0
173 196 0
174 197 0
174 196 0
172 195 0
171 193 0
171 193 0
169 193 0
170 191 0
170 192 0
171 193 0
168 189 0
166 188 0
165 187 0
163 183 0
166 187 0
159 177 0
160 179 0
156 175 0
159 178 0
155 173 0
150 167 0
157 176 0
152 170 0
143 159 0
152 168 0
140 153 0
143 157 0
133 145 0
127 138 0
155 169 0
149 166 0
149 165 0
153 170 0
156 173 0
142 157 0
145 159 0
136 148 0
149 164 0
139 152 0
135 148 0
114 119 60
95 87 80
89 81 72
86 78 65
88 80 72
90 82 76
92 83 92
89 81 88
95 86 107
87 79 86
93 85 90
88 81 74
84 77 85
84 78 76
84 80 80
109 118 37
117 134 0
126 149 0
130 154 0
128 154 0
137 160 0
133 158 0
128 157 0
132 158 0
130 161 0
128 161 0
107 148 0
68 122 0
66 121 0
72 127 0
72 127 0
75 135 0
81 137 0
81 137 0
80 140 0
83 145 0
90 156 0
90 157 0
91 157 0
90 157 0
89 156 0
93 161 0
95 164 0
98 166 0
98 166 0
97 161 0
95 163 0
94 161 0
100 168 0
101 169 0
99 168 0
100 168 0
103 171 0
99 168 0
104 172 0
104 172 0
102 171 0
105 172 0
173 196 0
172 195 0
171 194 0
173 196 0
173 195 0
172 194 0
173 194 0
169 189 0
169 191 0
170 192 0
168 189 0
170 190 0
170 192 0
168 189 0
161 182 0
166 187 0
166 186 0
166 185 0
158 177 0
161 180 0
163 183 0
157 175 0
158 175 0
153 170 0
155 172 0
146 160 0
142 157 0
135 147 0
142 155 0
135 145 0
139 153 0
140 153 0
146 161 0
147 161 0
137 150 0
141 154 0
134 146 0
142 155 0
126 137 0
137 148 0
122 132 0
124 133 0
122 132 0
112 118 0
87 85 44
84 76 74
86 78 80
83 75 72
87 80 84
83 75 67
89 81 88
87 80 76
79 72 70
78 71 70
76 70 72
83 85 40
91 106 8
102 115 0
98 117 0
112 130 0
116 136 0
107 130 0
126 150 0
124 154 0
113 140 0
122 152 0
113 145 0
112 142 0
116 149 0
103 139 0
69 120 0
65 121 0
65 121 0
76 132 0
79 142 0
73 132 0
84 146 0
80 141 0
82 146 0
86 151 0
84 151 0
89 158 0
90 156 0
93 161 0
89 156 0
94 162 0
92 160 0
99 167 0
94 163 0
95 166 0
93 161 0
97 167 0
98 168 0
101 169 0
99 168 0
97 166 0
101 170 0
105 172 0
102 170 0
99 169 0
173 196 0
172 194 0
173 195 0
173 195 0
171 193 0
171 193 0
169 191 0
169 190 0
170 190 0
169 189 0
166 186 0
169 190 0
169 190 0
167 188 0
166 186 0
166 185 0
160 179 0
160 178 0
161 179 0
154 172 0
159 178 0
154 172 0
157 174 0
148 163 0
149 164 0
144 159 0
145 158 0
136 148 0
125 135 0
133 146 0
137 149 0
131 143 0
134 145 0
137 150 0
135 146 0
131 141 0
138 150 0
136 149 0
132 143 0
130 141 0
125 134 0
124 132 0
113 120 0
109 117 0
100 106 0
102 109 0
79 80 18
70 66 44
75 71 54
72 69 51
75 70 54
71 67 51
77 77 54
61 62 32
84 93 0
76 87 0
92 103 0
104 119 0
107 125 0
98 115 0
105 121 0
106 131 0
118 143 0
119 142 0
106 130 0
124 151 0
114 144 0
102 133 0
103 136 0
91 126 0
88 129 0
87 132 0
61 122 0
66 125 0
68 126 0
66 124 0
68 129 0
79 143 0
81 149 0
80 144 0
83 151 0
88 158 0
85 152 0
85 151 0
89 158 0
93 160 0
92 160 0
91 160 0
87 156 0
93 163 0
97 167 0
94 165 0
96 166 0
98 169 0
92 162 0
100 169 0
99 168 0
96 167 0
103 172 0
100 169 0
172 195 0
173 195 0
173 194 0
169 190 0
173 194 0
171 192 0
172 193 0
171 192 0
171 194 0
172 191 0
171 192 0
170 190 0
167 187 0
165 184 0
164 183 0
166 185 0
162 181 0
160 177 0
164 183 0
158 174 0
153 170 0
153 171 0
147 163 0
140 154 0
132 146 0
126 138 0
125 135 0
127 137 0
133 144 0
140 151 0
138 150 0
132 143 0
130 141 0
131 143 0
136 148 0
134 145 0
143 157 0
133 144 0
123 134 0
130 141 0
131 141 0
120 127 0
115 123 0
109 116 0
100 105 0
106 112 0
92 98 0
81 84 0
77 79 0
60 58 0
80 85 0
84 91 0
100 107 0
80 93 0
90 102 0
100 112 0
92 102 0
108 127 0
93 111 0
118 137 0
111 133 0
120 145 0
116 138 0
123 149 0
107 133 0
110 135 0
117 142 0
103 130 0
105 132 0
106 136 0
100 131 0
83 120 0
78 118 0
61 101 0
64 116 0
66 129 0
64 124 0
74 140 0
76 138 0
79 141 0
80 144 0
84 151 0
83 150 0
85 151 0
85 152 0
88 156 0
89 155 0
87 159 0
89 157 0
89 161 0
89 158 0
96 164 0
92 163 0
99 167 0
96 166 0
96 167 0
98 168 0
101 170 0
103 172 0
102 171 0
173 197 0
174 196 0
173 195 0
176 197 0
171 192 0
168 189 0
172 194 0
169 190 0
169 191 0
168 188 0
167 185 0
167 185 0
169 188 0
167 185 0
162 181 0
168 187 0
157 175 0
158 174 0
155 171 0
150 166 0
142 156 0
142 156 0
134 147 0
127 138 0
120 130 0
128 138 0
134 146 0
129 139 0
130 141 0
138 150 0
133 145 0
135 147 0
141 154 0
144 159 0
119 130 0
137 149 0
133 145 0
141 155 0
133 147 0
128 138 0
127 139 0
119 127 0
116 125 0
119 128 0
99 104 0
110 118 0
114 120 0
98 105 0
102 110 0
93 103 0
98 104 0
99 107 0
103 114 0
104 114 0
101 113 0
119 137 0
107 121 0
108 125 0
128 147 0
112 130 0
112 132 0
120 139 0
113 135 0
127 153 0
115 142 0
120 143 0
121 144 0
117 147 0
116 143 0
104 131 0
107 141 0
109 141 0
96 129 0
86 121 0
74 114 0
66 98 0
65 115 0
56 115 0
71 136 0
68 131 0
77 143 0
76 141 0
73 140 0
79 148 0
82 153 0
83 154 0
78 148 0
88 159 0
91 160 0
85 154 0
88 158 0
91 161 0
88 157 0
90 161 0
94 165 0
92 163 0
101 169 0
118 176 0
137 181 0
160 191 0
171 194 0
171 194 0
172 194 0
174 196 0
172 194 0
170 190 0
171 190 0
171 190 0
170 190 0
168 187 0
164 182 0
167 186 0
168 186 0
160 177 0
154 171 0
158 175 0
158 175 0
151 166 0
148 163 0
140 154 0
134 147 0
136 149 0
128 140 0
137 151 0
140 153 0
150 164 0
139 151 0
139 152 0
142 156 0
145 160 0
142 156 0
146 160 0
140 155 0
143 158 0
140 154 0
141 155 0
142 157 0
139 155 0
135 149 0
134 147 0
133 145 0
133 146 0
135 147 0
121 131 0
121 132 0
123 135 0
107 113 0
122 136 0
111 119 0
116 129 0
112 122 0
114 126 0
123 138 0
105 114 0
118 133 0
118 131 0
120 137 0
117 131 0
119 135 0
124 144 0
123 146 0
120 142 0
114 135 0
125 149 0
117 142 0
122 147 0
124 147 0
125 150 0
129 160 0
120 145 0
106 140 0
116 143 0
107 143 0
108 142 0
100 136 0
103 140 0
79 122 0
96 133 0
69 114 0
66 109 0
65 122 0
70 130 0
65 128 0
74 139 0
71 141 0
77 146 0
76 149 0
79 150 0
81 150 0
82 153 0
86 156 0
90 159 0
99 158 0
115 170 0
127 175 0
138 180 0
157 188 0
160 191 0
158 190 0
157 188 0
172 194 0
173 194 0
172 193 0
173 194 0
171 192 0
172 192 0
173 193 0
170 190 0
171 190 0
167 185 0
165 182 0
164 181 0
163 179 0
157 173 0
150 165 0
150 165 0
152 168 0
146 160 0
136 149 0
142 156 0
148 162 0
139 153 0
144 158 0
145 159 0
144 158 0
141 155 0
150 164 0
143 157 0
153 168 0
131 145 0
150 166 0
147 163 0
143 158 0
142 156 0
140 153 0
146 161 0
129 143 0
140 154 0
130 143 0
135 149 0
128 140 0
131 145 0
139 156 0
127 140 0
132 144 0
120 132 0
127 138 0
129 141 0
126 138 0
115 127 0
125 138 0
127 141 0
117 129 0
128 143 0
131 150 0
119 138 0
125 140 0
123 140 0
120 136 0
126 147 0
133 155 0
122 142 0
132 155 0
134 157 0
125 150 0
128 148 0
116 142 0
120 148 0
127 153 0
124 152 0
114 147 0
126 157 0
119 152 0
117 149 0
115 149 0
113 151 0
113 151 0
98 136 0
94 139 0
107 145 0
82 128 0
93 140 0
83 127 0
95 140 0
93 143 0
107 153 0
108 156 0
109 156 0
111 160 0
113 159 0
127 171 0
138 177 0
144 181 0
145 181 0
146 183 0
149 186 0
152 186 0
152 186 0
156 188 0
157 189 0
173 194 0
171 193 0
172 193 0
172 192 0
170 190 0
172 191 0
167 186 0
165 183 0
170 189 0
167 184 0
163 181 0
163 179 0
163 179 0
156 173 0
159 175 0
153 168 0
151 167 0
148 163 0
150 164 0
146 161 0
156 172 0
154 172 0
149 165 0
159 176 0
145 161 0
149 164 0
148 165 0
150 165 0
149 166 0
147 164 0
143 159 0
146 161 0
149 166 0
143 160 0
140 157 0
148 164 0
139 154 0
141 157 0
141 157 0
137 151 0
138 152 0
142 157 0
142 159 0
133 148 0
134 147 0
135 150 0
129 142 0
124 137 0
137 154 0
122 133 0
138 156 0
124 136 0
127 144 0
131 147 0
130 148 0
132 152 0
122 140 0
137 155 0
135 158 0
127 147 0
135 160 0
122 145 0
142 165 0
139 164 0
135 159 0
138 163 0
129 151 0
127 153 0
137 163 0
127 153 0
128 153 0
122 153 0
120 152 0
127 161 0
120 152 0
120 153 0
117 152 0
114 150 0
118 156 0
115 154 0
110 149 0
97 140 0
96 143 0
112 151 0
105 147 0
106 154 0
97 144 0
103 152 0
111 160 0
126 166 0
122 163 0
130 170 0
134 173 0
140 178 0
134 174 0
147 185 0
144 181 0
147 184 0
152 187 0
154 187 0
176 196 0
170 190 0
172 192 0
172 192 0
169 189 0
166 186 0
172 191 0
169 187 0
164 182 0
164 181 0
165 183 0
161 179 0
158 173 0
165 183 0
157 174 0
159 175 0
156 173 0
158 174 0
155 171 0
157 174 0
156 172 0
156 172 0
154 171 0
144 159 0
151 167 0
153 171 0
154 170 0
156 173 0
154 173 0
149 164 0
149 165 0
147 164 0
146 163 0
146 163 0
151 170 0
152 171 0
146 162 0
142 158 0
138 155 0
141 157 0
145 162 0
138 152 0
142 157 0
144 161 0
138 155 0
135 152 0
135 148 0
139 156 0
138 154 0
131 148 0
130 146 0
132 146 0
138 155 0
130 144 0
137 157 0
140 158 0
139 159 0
133 150 0
130 151 0
141 161 0
138 159 0
134 157 0
134 156 0
133 158 0
131 155 0
133 157 0
125 152 0
131 157 0
138 163 0
136 162 0
128 153 0
133 160 0
130 160 0
132 160 0
125 155 0
126 154 0
128 162 0
126 158 0
123 158 0
122 160 0
113 154 0
121 161 0
113 156 0
109 153 0
121 163 0
116 161 0
124 164 0
119 162 0
110 155 0
117 159 0
132 171 0
128 169 0
127 171 0
130 173 0
132 172 0
139 177 0
132 174 0
149 184 0
144 182 0
148 184 0
174 194 0
168 189 0
170 190 0
172 191 0
167 186 0
165 184 0
170 189 0
168 187 0
168 186 0
164 181 0
162 179 0
162 180 0
161 178 0
165 183 0
157 175 0
157 175 0
162 179 0
164 184 0
157 176 0
158 174 0
162 180 0
157 175 0
158 176 0
154 171 0
152 168 0
159 177 0
159 176 0
151 169 0
150 168 0
147 163 0
147 164 0
154 171 0
148 165 0
148 165 0
152 170 0
151 168 0
145 164 0
148 166 0
154 173 0
146 164 0
146 162 0
141 157 0
140 157 0
138 155 0
146 166 0
141 156 0
138 154 0
134 151 0
133 151 0
132 149 0
138 154 0
147 167 0
141 160 0
140 160 0
137 154 0
147 167 0
127 146 0
131 152 0
140 157 0
143 167 0
135 156 0
135 156 0
140 160 0
139 163 0
130 151 0
139 157 0
144 169 0
137 161 0
137 165 0
130 155 0
136 162 0
134 161 0
132 161 0
134 169 0
134 163 0
126 157 0
135 166 0
130 159 0
137 169 0
131 164 0
127 162 0
128 165 0
118 158 0
124 162 0
122 162 0
115 155 0
125 167 0
127 167 0
118 162 0
135 172 0
129 169 0
125 165 0
123 169 0
130 171 0
137 176 0
143 179 0
134 176 0
143 180 0
142 180 0
142 181 0
173 193 0
171 191 0
167 187 0
172 191 0
169 188 0
164 184 0
164 184 0
167 187 0
167 186 0
167 185 0
164 182 0
164 183 0
162 180 0
167 184 0
164 181 0
162 180 0
160 178 0
161 179 0
161 179 0
160 177 0
160 178 0
157 175 0
158 177 0
162 181 0
152 172 0
159 177 0
156 175 0
152 170 0
151 168 0
151 170 0
151 170 0
154 174 0
155 173 0
151 169 0
147 164 0
147 165 0
154 173 0
144 160 0
138 153 0
142 159 0
152 169 0
144 161 0
146 165 0
143 158 0
146 164 0
141 158 0
142 160 0
139 159 0
143 162 0
147 165 0
136 152 0
141 159 0
136 156 0
142 159 0
136 158 0
137 156 0
147 168 0
143 168 0
149 169 0
140 163 0
149 172 0
136 155 0
151 174 0
144 167 0
138 159 0
135 160 0
145 171 0
144 169 0
146 167 0
143 171 0
141 168 0
145 174 0
138 165 0
140 169 0
133 163 0
139 169 0
139 170 0
130 163 0
137 170 0
133 168 0
130 166 0
134 170 0
135 169 0
126 164 0
136 175 0
126 162 0
131 168 0
127 167 0
132 169 0
128 165 0
133 171 0
134 172 0
133 173 0
134 172 0
129 171 0
135 175 0
137 178 0
138 178 0
138 176 0
138 178 0
173 194 0
172 190 0
169 189 0
167 186 0
172 191 0
167 187 0
163 183 0
167 186 0
166 186 0
158 177 0
162 181 0
168 187 0
166 186 0
165 184 0
161 180 0
162 180 0
159 178 0
163 182 0
162 181 0
157 175 0
156 175 0
151 168 0
156 176 0
160 180 0
155 174 0
156 174 0
155 173 0
159 179 0
154 173 0
157 177 0
156 176 0
153 172 0
147 165 0
150 169 0
154 174 0
156 174 0
148 168 0
154 174 0
149 168 0
154 173 0
142 160 0
151 172 0
147 165 0
140 156 0
148 167 0
137 154 0
151 169 0
149 168 0
154 175 0
147 167 0
145 164 0
142 162 0
143 163 0
140 158 0
146 166 0
143 162 0
145 165 0
143 162 0
143 164 0
145 168 0
142 163 0
146 168 0
143 167 0
145 167 0
145 166 0
145 169 0
152 179 0
141 165 0
142 168 0
148 172 0
139 168 0
143 170 0
145 174 0
138 165 0
140 166 0
140 169 0
135 165 0
144 175 0
143 173 0
141 172 0
143 174 0
138 172 0
135 169 0
136 173 0
139 170 0
137 171 0
131 171 0
135 173 0
124 162 0
134 170 0
132 170 0
144 180 0
132 173 0
143 180 0
140 176 0
134 173 0
138 177 0
141 179 0
145 180 0
143 180 0
168 188 0
171 191 0
170 190 0
170 190 0
166 186 0
169 189 0
165 184 0
166 185 0
164 184 0
161 179 0
164 183 0
161 180 0
157 176 0
164 183 0
157 175 0
156 176 0
160 178 0
162 183 0
163 184 0
157 175 0
160 179 0
158 176 0
152 171 0
157 176 0
155 174 0
157 178 0
158 176 0
156 175 0
156 176 0
156 176 0
160 179 0
157 175 0
149 167 0
154 172 0
146 165 0
151 168 0
151 169 0
148 166 0
149 167 0
152 172 0
148 167 0
145 166 0
155 174 0
152 171 0
151 171 0
145 164 0
153 174 0
149 168 0
148 167 0
148 168 0
139 158 0
140 159 0
150 170 0
149 169 0
152 173 0
147 167 0
149 172 0
146 168 0
147 165 0
148 170 0
143 168 0
142 161 0
143 166 0
150 171 0
145 170 0
142 169 0
143 169 0
140 165 0
141 168 0
146 175 0
144 171 0
138 168 0
144 172 0
147 173 0
147 173 0
133 161 0
145 171 0
140 168 0
139 172 0
147 175 0
143 172 0
137 168 0
140 172 0
144 176 0
143 172 0
135 167 0
135 170 0
139 176 0
142 176 0
142 177 0
139 173 0
142 177 0
139 174 0
135 176 0
137 176 0
141 179 0
144 180 0
136 175 0
140 177 0
143 179 0
168 188 0
169 189 0
167 187 0
171 191 0
165 185 0
166 186 0
169 188 0
166 186 0
167 187 0
167 187 0
168 189 0
165 185 0
159 178 0
158 178 0
170 191 0
159 180 0
162 180 0
155 173 0
159 180 0
166 188 0
160 179 0
157 177 0
163 182 0
158 176 0
159 179 0
153 173 0
162 181 0
152 170 0
148 166 0
155 176 0
158 179 0
158 179 0
150 169 0
159 179 0
154 175 0
153 172 0
146 164 0
157 178 0
153 172 0
144 163 0
153 173 0
156 175 0
152 173 0
153 174 0
155 177 0
153 172 0
143 160 0
145 164 0
144 164 0
145 165 0
141 159 0
151 174 0
149 168 0
143 161 0
145 166 0
141 162 0
152 173 0
146 165 0
142 162 0
151 170 0
141 163 0
152 175 0
146 172 0
146 167 0
144 167 0
146 168 0
146 171 0
141 165 0
148 173 0
144 166 0
152 176 0
149 177 0
147 174 0
144 170 0
144 171 0
139 166 0
146 172 0
140 173 0
139 166 0
146 175 0
151 181 0
143 172 0
144 176 0
143 175 0
138 168 0
128 165 0
140 174 0
137 170 0
139 175 0
142 176 0
130 169 0
145 178 0
142 176 0
138 179 0
137 175 0
146 181 0
144 180 0
140 176 0
140 178 0
140 179 0
169 189 0
167 187 0
168 189 0
166 187 0
169 190 0
166 188 0
163 183 0
164 185 0
165 185 0
166 185 0
160 180 0
164 184 0
161 179 0
164 185 0
160 179 0
163 183 0
161 181 0
160 181 0
166 186 0
151 170 0
154 172 0
161 181 0
159 180 0
159 179 0
159 178 0
156 177 0
149 167 0
151 170 0
149 168 0
150 170 0
147 168 0
154 173 0
160 182 0
154 177 0
155 176 0
157 178 0
154 174 0
153 173 0
158 178 0
154 174 0
152 170 0
153 174 0
149 168 0
150 169 0
154 174 0
158 180 0
143 163 0
153 175 0
153 174 0
147 165 0
152 173 0
148 166 0
144 160 0
154 176 0
146 166 0
158 178 0
152 174 0
145 169 0
145 168 0
145 165 0
150 172 0
150 170 0
158 180 0
147 173 0
147 169 0
141 163 0
150 173 0
152 176 0
144 169 0
151 175 0
147 171 0
152 177 0
140 167 0
144 171 0
139 166 0
142 172 0
147 174 0
153 183 0
152 179 0
152 180 0
146 174 0
146 175 0
152 182 0
143 173 0
140 175 0
144 177 0
144 177 0
140 171 0
144 174 0
150 181 0
144 176 0
154 183 0
142 179 0
141 178 0
151 183 0
142 175 0
142 178 0
144 179 0
146 180 0
142 179 0
170 189 0
171 191 0
165 186 0
166 186 0
167 189 0
163 181 0
166 186 0
164 182 0
161 179 0
160 179 0
166 187 0
166 187 0
163 183 0
162 183 0
162 183 0
163 184 0
161 179 0
163 183 0
163 184 0
161 180 0
160 182 0
154 173 0
155 175 0
160 182 0
159 179 0
161 182 0
160 181 0
154 174 0
154 175 0
159 178 0
155 172 0
156 176 0
161 181 0
156 175 0
153 173 0
154 173 0
155 175 0
158 178 0
160 181 0
153 172 0
153 175 0
158 180 0
154 175 0
151 170 0
157 179 0
151 172 0
151 171 0
147 166 0
158 178 0
145 166 0
149 168 0
150 170 0
152 172 0
151 172 0
149 169 0
144 166 0
154 177 0
146 168 0
150 171 0
147 170 0
157 180 0
151 174 0
148 170 0
150 172 0
154 177 0
145 167 0
151 172 0
147 168 0
147 174 0
151 174 0
151 175 0
151 175 0
151 178 0
146 170 0
151 176 0
145 171 0
143 169 0
150 178 0
145 175 0
151 177 0
147 175 0
144 174 0
145 171 0
149 178 0
151 180 0
146 176 0
152 180 0
143 174 0
147 178 0
148 177 0
150 183 0
150 181 0
141 172 0
149 178 0
133 170 0
142 178 0
144 175 0
142 180 0
147 180 0
143 178 0
167 187 0
160 181 0
165 184 0
167 188 0
163 183 0
162 183 0
165 187 0
163 183 0
169 190 0
163 184 0
163 183 0
163 184 0
159 181 0
162 182 0
156 175 0
157 176 0
159 179 0
161 184 0
162 182 0
163 184 0
158 179 0
162 182 0
161 181 0
158 177 0
159 179 0
157 175 0
158 177 0
158 179 0
155 177 0
157 178 0
152 171 0
153 171 0
162 182 0
156 177 0
157 178 0
163 185 0
158 179 0
159 180 0
153 173 0
154 174 0
154 176 0
158 180 0
158 181 0
153 173 0
152 174 0
156 178 0
152 175 0
147 168 0
150 171 0
154 175 0
150 170 0
153 174 0
154 174 0
149 171 0
154 176 0
156 177 0
155 177 0
155 180 0
151 175 0
156 180 0
150 173 0
153 177 0
151 175 0
149 172 0
153 178 0
150 172 0
149 174 0
152 178 0
153 176 0
149 175 0
150 175 0
152 174 0
147 173 0
147 173 0
149 175 0
151 178 0
146 172 0
146 172 0
147 176 0
153 184 0
145 175 0
146 175 0
145 170 0
142 172 0
151 181 0
146 176 0
140 172 0
144 175 0
148 179 0
148 180 0
144 174 0
152 181 0
151 181 0
145 177 0
140 175 0
146 181 0
148 180 0
148 182 0
145 176 0
144 176 0
166 187 0
167 189 0
163 184 0
167 188 0
168 188 0
167 187 0
166 187 0
164 182 0
163 184 0
167 187 0
163 184 0
161 183 0
165 186 0
162 184 0
160 181 0
163 184 0
161 183 0
162 183 0
158 179 0
162 184 0
160 180 0
156 176 0
164 185 0
158 177 0
163 185 0
153 172 0
165 186 0
161 183 0
161 181 0
160 181 0
163 185 0
156 176 0
157 180 0
157 178 0
154 175 0
162 182 0
150 170 0
155 176 0
155 175 0
158 182 0
151 171 0
157 178 0
150 170 0
155 174 0
148 168 0
154 175 0
146 163 0
152 172 0
159 180 0
157 179 0
154 175 0
154 174 0
147 169 0
153 174 0
153 176 0
148 169 0
158 181 0
159 181 0
154 174 0
153 176 0
151 173 0
150 176 0
152 175 0
150 175 0
152 175 0
147 169 0
152 177 0
149 173 0
151 173 0
152 176 0
147 173 0
150 178 0
153 177 0
150 176 0
154 181 0
155 183 0
146 170 0
149 176 0
150 177 0
148 172 0
148 174 0
143 171 0
152 181 0
148 175 0
154 179 0
153 181 0
150 178 0
150 178 0
154 182 0
153 182 0
148 180 0
143 175 0
145 177 0
159 187 0
133 169 0
147 179 0
150 181 0
146 179 0
142 176 0
152 181 0
